X:1
T:Title
%%score { ( 1 3 ) | ( 2 4 ) }
L:1/8
Q:1/4=116
M:4/4
K:Eb
V:1 treble nm="Grand Piano"
V:3 treble 
V:2 bass 
V:4 bass 
V:1
 [B,EG]2 [E_G]2 [B,E=G]2 [E_G]2 | [B,EG]2 [EG]>A [GB]4 | [B,DB]2 [DA]2 [B,DF]2 [DA]2 | %3
w: Maurice~A.~Clifton * * *|||
 [EGB]4 [EG]4 | [B,EG]2 [E_G]2 [B,E=G]2 [E_G]2 | [B,EG]2 [EG]>A [GB]4 | F2 F2 B2 d2 | %7
w: ||||
 [EF=Ac]4 [DFB]4 | [DFAc]2 [DFAc]2 [DFAc]2 z2 | [B,EGB]2 [B,EGB]2 [B,EGB]2 z2 | %10
w: |||
 [GBe]2 [B,EGB]2 [B,EG]2 [A,CEA]2 | [B,E]2 z2 F4 | [B,DFA]2 [B,DFA]2 [B,DFA]2 z2 | %13
w: |||
 [G,B,E]2 [B,EG]2 [B,EGB]2 [GBe]2 | [Bd]2 B2 d2 c2 | [DFB]6 z2 | e2- [Ge-]2 [Ge]2 dc | %17
w: ||||
 B2- [GB-]2 [GB]2 GE | D2 [DF]2 [DFA]2 [B,DFAB]2 | c4 B4 | e6 z2 | B6 z2 | %22
w: |||||
 [=A,C]2 [A,C]2 [A,CD]2 [A,CE]2 | [DG]2 [DF]2 D2 B,2 | G4 z4 | B2- [GB-]2 [GB]2 cd | %26
w: ||||
 [Ge]2 [Gd]2 [GBf]2 [GBe]2 | d2- [EAd]2 c2- [EAc]2 | e2- [E_G=Ae-]2 [EGAe]2 dc | [EG]2 z2 z4 | %30
w: ||||
 [B,DFB]2 [B,DFA]2 [B,DG]2 [A,DF]2 | E6 z2 |] %32
w: ||
V:2
 E,2 B,,2 E,2 B,,2 | E,2 z z/ F/ E,2 B,,2 | F,2 B,,2 F,2 B,,2 | E,2 B,,2 E,2 B,,2 | %4
 E,2 B,,2 E,2 B,,2 | E,2 z z/ F/ E,2 B,,2 | [F,B,D]2 [F,B,D]2 [F,B,D]2 [F,B,F]2 | %7
 [F,=A,]2 F,2 B,,2 F,2 | [B,,F,B,]2 [B,,F,B,]2 [B,,F,B,]2[K:treble] AF | E,2 E,2 E,2[K:treble] cd | %10
 [E,B,E]2 E,2 E,2 A,,2 | B,,2 B,,2 B,,2 B,,2 | B,,2 B,,2 B,,2[K:treble] GF | E,2 E,2 E,2 [E,B,]2 | %14
 [F,B,F]2 [F,B,DF]2 [F,B,F]2 [F,=A,EF]2 | [B,,B,]2 B,C B,A,G,F, | [E,B,E]2 [E,B,E]2 [E,B,E]2 z2 | %17
 [E,B,E]2 [E,B,E]2 [E,B,E]2 z2 | [B,,F,B,]2 [B,,F,B,]2 [B,,F,B,]2 [B,,F,]2 | %19
 [E,=A,E]2 [E,A,]2 [E,B,E]2 [E,B,]2 | [E,B,E]2 [E,B,E]2 [E,B,E]2 z2 | %21
 [E,B,E]2 [E,B,E]2 [E,B,E]2 z2 | [F,,F,]2 [F,,F,]2 [F,,F,]2 [F,,F,]2 | %23
 [B,,F,A,]2 [B,,F,A,]2 [B,,F,A,]2 [B,,F,A,]2 | [E,G,B,E]2 [E,G,B,]2 [E,G,B,]2 z2 | %25
 [E,B,E]2 [E,B,E]2 [E,B,E]2 z2 | [E,B,E]2 [E,B,E]2 [E,B,]2 [E,B,]2 | %27
 [A,,A,]2 [A,,A,]2 [A,,A,]2 [A,,A,]2 | [=B,,_G,=B,]2 [B,,G,B,]2 [B,,G,B,]2 z2 | %29
 [B,,G,B,]2 B,,2 B,,2[K:treble] FG | B,,2 B,,2 [B,,,B,,]2 [B,,,B,,]2 | %31
 [E,,E,]2 [A,,,A,,]2 [E,,,E,,]2 z2 |] %32
V:3
 x8 | z4 B,2 z2 | x8 | B,2 z2 B,2 z2 | x8 | z4 B,2 z2 | x8 | z4 B,2 z2 | x8 | x8 | x8 | %11
 G2- [B,EG]2 [B,D]2 [B,D]2 | x8 | x8 | x8 | x8 | G2 z2 z4 | G2 z2 z4 | x8 | _G2 [EG]2 =G2 [EG]2 | %20
 G2 G2 G2 dc | G2 G2 G2 GE | x8 | x8 | z2 E2 E2 GA | G2 z2 z4 | x8 | [EA]2 z2 [EA]2 z2 | %28
 [E_G=A]2 z2 z4 | B2- [G,B,EGB-]2 [G,B,EGB]2 z2 | x8 | [G,B,]2 [A,C]2 [G,B,]2 z2 |] %32
V:4
 x8 | z2 B,,2 z4 | x8 | x8 | x8 | z2 B,,2 z4 | x8 | x8 | x6[K:treble] x2 | x6[K:treble] x2 | x8 | %11
 x8 | x6[K:treble] x2 | x8 | x8 | x8 | x8 | x8 | x8 | x8 | x8 | x8 | x8 | x8 | x8 | x8 | x8 | x8 | %28
 x8 | x6[K:treble] x2 | x8 | x8 |] %32

